X:130
T:Ai ! Lemozis
C:Bertrand de Born
L:1/4
K:C
G>GB | d>dc | d>ed | (c>BA) | B2z |
(c2B) | (A>G)A | G>AB | (A/G/) (c/B/) (A/G/) | (GA)z |
c>AG | G>AB | A>(Bc) | B(A/G/F) | G2z | (c2B) |
A>AG | G>AB | (c>B) (A/G/) | (AB)z | c>AG | 
G>Bc | d>dd | d2z | c>BA | G>GG | A>BG |
(AB)z | d>ec | d>cA | (A/B/)cA | (B/A/)Gz |]





